!!!Genre:	Freylekhs
!!!Mode:	Minor
!!!Listening/dance:	dance
!!!One_Mode:	yes
**kern
*I"P1
*clefG2
*k[b-e-]
*g:
*M2/4
*>A
=1
8gL
8ddJ
8ddL
16ccL
16ddJJ
=2
8ccL
16b-L
16ccJJ
16b-LL
16aJ
8gJ
=3
16gLL
16aJ
8b-J
16aLL
16b-J
8ccJ
=4
8gL
8gJ
8b-L
8gJ
=5
8gL
8ddJ
8ddL
16ccL
16ddJJ
=6
8ccL
16b-L
16ccJJ
16b-LL
16aJ
8gJ
=7
16gLL
16aJ
8b-J
16aLL
16b-J
8ccJ
*>A1
=8
4g
8gg
8r
*>A2
=9:|!
8gL
*>B
24fL
24g
24fJJ
16enLL
16f
16g
16aJJ
=10!|:
4b-
24fLL
24g
24fJ
8e-XJ
=11
16dLL
16e-JJ
4f
8f
=12
8b-L
8b-J
16aLL
16b-J
8ccJ
=13
8gL
8gJ
8b-TL
8gJ
=14
4b-
8.fL
16e-Jk
=15
16dLL
16e-JJ
4f
8f
=16
8b-L
8b-J
16aLL
16b-J
8ccJ
*>B1
=17
4.g
8r
*>B2
=18:|!
4g
8gg
8r
=19||
*>C
8gL
8ddJ
8ddL
(16ccL
16ddJJ
=20
8ccL)
(16b-L
16ccJJ
16b-LL
16aJ
8gJ)
=21
16gLL
16aJ
8b-J
16aLL
16b-J
8ccJ
=22
8gL
8gJ
8b-TL
8gJ
=23
8gL
8ddJ
8ddL
16ccL
16ddJJ
=24
8ccL
16b-L
16ccJJ
16ddLL
16ee-
16een
16ff#XJJ
=25
4gg
8.ddL
16b-Jk
=26
4g
4r
==
*-
